src/Pure/16/symbolic/apps/org.gnome.Settings-notifications-symbolic.svg

<?xml version="1.0" encoding="UTF-8" standalone="no"?>
<svg
   width="16px"
   height="16px"
   version="1.1"
   viewBox="0 0 16 16"
   id="svg1"
   sodipodi:docname="org.gnome.Settings-notifications-symbolic.svg"
   inkscape:version="1.4.2 (ebf0e940d0, 2025-05-08)"
   xmlns:inkscape="http://www.inkscape.org/namespaces/inkscape"
   xmlns:sodipodi="http://sodipodi.sourceforge.net/DTD/sodipodi-0.dtd"
   xmlns="http://www.w3.org/2000/svg"
   xmlns:svg="http://www.w3.org/2000/svg">
  <defs
     id="defs1">
     <style
        id="current-color-scheme"
        type="text/css">
        .ColorScheme-Text { color:#363636; }
     </style>
  </defs>
  <sodipodi:namedview
     id="namedview1"
     pagecolor="#ffffff"
     bordercolor="#000000"
     borderopacity="0.25"
     inkscape:showpageshadow="2"
     inkscape:pageopacity="0.0"
     inkscape:pagecheckerboard="0"
     inkscape:deskcolor="#d1d1d1"
     inkscape:zoom="49.75"
     inkscape:cx="7.9899497"
     inkscape:cy="8"
     inkscape:window-width="1920"
     inkscape:window-height="1011"
     inkscape:window-x="0"
     inkscape:window-y="0"
     inkscape:window-maximized="1"
     inkscape:current-layer="svg1" />
  <path
     id="path1"
     style="fill:currentColor"
     class="ColorScheme-Text"
     d="M 7.9941406 1 C 4.7675406 1 2.1226 3.4512594 2 6.5683594 L 1.9960938 6.7929688 L 1.9960938 10.400391 L 1.0722656 12.621094 L 1.0292969 12.748047 L 1.0078125 12.875 C 0.9574125 13.3385 1.2005481 13.756764 1.6113281 13.927734 L 1.7363281 13.970703 C 1.8208881 13.993503 1.9081438 14.003906 1.9960938 14.003906 L 5.1777344 14 C 5.6007616 15.19651 6.730913 15.997393 8 16 C 9.2690871 15.9974 10.399239 15.19651 10.822266 14 L 13.998047 14.003906 L 14.132812 13.994141 L 14.248047 13.966797 C 14.700747 13.837797 14.998047 13.451906 14.998047 13.003906 L 14.988281 12.873047 L 14.974609 12.787109 C 14.961909 12.730209 14.944475 12.675194 14.921875 12.621094 L 13.996094 10.398438 L 13.996094 6.8027344 L 13.992188 6.578125 L 13.978516 6.3554688 C 13.738016 3.3349687 11.143141 1 7.9941406 1 z M 7.9941406 2 C 10.691141 2 12.887086 4.0340219 12.992188 6.6074219 L 12.996094 6.8125 L 12.996094 10.5 L 13.035156 10.691406 L 13.998047 13.003906 L 13.953125 13.005859 L 1.9960938 13.003906 L 2.9589844 10.691406 L 2.9960938 10.5 L 2.9960938 6.8027344 L 3 6.5976562 L 3.0136719 6.3847656 C 3.2236919 3.9234656 5.3715406 2 7.9941406 2 z M 6.2753906 14 L 9.7246094 14 C 9.3686763 14.616506 8.7118712 14.997348 8 15 C 7.2881288 14.997348 6.6313237 14.616506 6.2753906 14 z " />
</svg>

<svg width="16px" height="16px" version="1.1" viewBox="0 0 16 16" xmlns="http://www.w3.org/2000/svg">
 <path d="m7.9945 1c-3.2266 0-5.8715 2.4513-5.9941 5.5684l-0.00391 0.22461v3.6074l-0.92383 2.2207-0.042969 0.12695-0.021484 0.12695c-0.0504 0.4635 0.19274 0.88173 0.60352 1.0527l0.125 0.04297c0.08456 0.0228 0.17182 0.0332 0.25977 0.0332h2.0039v-0.0039h1.1777a3 3 0 0 0 2.8223 2 3 3 0 0 0 2.8223-2h2.1777v0.0039h0.99805l0.13476-0.0098 0.11524-0.02734c0.4527-0.129 0.75-0.51489 0.75-0.96289l-0.0098-0.13086-0.01367-0.08594c-0.0127-0.0569-0.03013-0.11192-0.05273-0.16602l-0.92578-2.2227v-3.5957l-0.0039-0.22461-0.01367-0.22266c-0.2405-3.0205-2.8354-5.3555-5.9844-5.3555zm0 1c2.697 0 4.8929 2.034 4.998 4.6074l0.0039 0.20508v3.6875l0.03906 0.19141 0.96289 2.3125-0.04492 2e-3h-2.9531a3 3 0 0 0 0-0.0059h-1a2 2 0 0 1 0 0.0059l-4-2e-3a2 2 0 0 1 0-0.0039h-1a3 3 0 0 0 0 0.0039h-3.0039l0.96289-2.3125 0.037109-0.19141v-3.6973l0.00391-0.20508 0.013672-0.21289c0.21002-2.4613 2.3579-4.3848 4.9805-4.3848zm-1.7188 12h3.4492a2 2 0 0 1-1.7246 1 2 2 0 0 1-1.7246-1z" fill="#363636"/>
</svg>
